X:1
T:Title
%%score { ( 1 3 5 ) | ( 2 4 ) }
L:1/8
Q:1/4=100
M:4/4
K:G
V:1 treble nm="Grand Piano"
V:3 treble 
V:5 treble 
V:2 treble 
V:4 treble 
V:1
 B2 d>B A2 d>A | z4 [^DF]4 | [G,CE]2 [CEG]>[G,CE] [G,B,D]2 [B,DG]2 | [^CGB]2 [G,CE]>[CGB] [DFA]4 | %4
w: W.~Stillman~Martin * * * * *||||
 B2 d>B A2 d>A | z4 [^DF]4 | [G,CE]2 [CEG]>[G,CE] [G,B,D]2 [G,DG]>[DGB] | %7
w: |||
 [DFA]2 [^CGe]>[G^c] [Fd]4 | z2 [DB]4 z2 | z2 [^CA]6 | A2 F2 E2 D2 |[M:3/4] d6 |[M:1/4] c2 | %13
w: ||||||
[M:4/4] z2 [DB]4 z2 | z2 [^CA]6 | [^CB]2 [CE]2 [CB]2 [C_B]2 | A8[K:bass] | z2 [DB]4 z2 | %18
w: |||||
 z2 [^CA]6 | A2 F2 E2 D2 |[M:3/4] d6 |[M:1/4] [Gd]2 |[M:4/4] z2 [^Ge]4 z2 | [Ed]2 z2 z E[EB]A | %24
w: ||||||
 D2 B2 B2 A2 | [B,DG]6 z2 |] %26
w: ||
V:2
 [G,DG]2 [G,B,G]>[G,DG][K:bass] [F,D]2 [F,CD]>[F,CD] | [E,B,E]2 E,>E, z2 A,2 | %2
 C,2 C,>C, G,,2 G,,2 | A,,2 A,,>A,, D,4 | [G,DG]2 [G,B,G]>[G,DG][K:bass] [F,D]2 [F,CD]>[F,CD] | %5
 [E,B,E]2 E,>E, z2 A,2 | C,2 C,>C, G,,2 B,,>G,, | A,,2 A,,>[E,A,] [D,A,]4 | %8
 [G,,G,]2 [G,,G,]2 z B, [G,,G,]2 | [A,,G,]2 [A,,G,]2 A,,2 A,,2 | %10
 [D,F,C]2 [D,A,C]2 [E,G,C]2 [F,A,]2 |[M:3/4] D2 z2 z2 |[M:1/4] [D,A,D]2 | %13
[M:4/4] [G,,G,]2 [G,,G,]2 z B, [G,,G,]2 | [A,,G,]2 [A,,G,]2 A,,2 A,,2 | %15
 [A,,G,]2 [A,,G,]2 [A,,G,]2 [A,,G,]2 | F,2 z2 D,4 | [G,,G,]2 [G,,G,]2 z B, [G,,G,]2 | %18
 [A,,G,]2 [A,,G,]2 A,,2 A,,2 | [D,F,C]2 [D,A,C]2 [E,G,C]2 [F,A,]2 |[M:3/4] D2 z2 z2 | %21
[M:1/4] [=F,B,]2 |[M:4/4] [E,B,]2 [E,B,]2 z ^GEE | z4 z2 [C,C]2 | %24
 [D,B,]2 [D,G,D]2 [D,G,D]2 [D,CD]2 | G,,6 z2 |] %26
V:3
 x8 | G2 [B,GB]>[B,EG] B,2 z2 | x8 | x8 | x8 | G2 [B,GB]>[B,EG] B,2 z2 | x8 | x8 | %8
 [DB]2 z2 z D[B,E][B,D] | [A,^C]2 z2 G,2 G,2 | x8 |[M:3/4] z2 D4 |[M:1/4] x2 | %13
[M:4/4] [DB]2 z2 z D[B,E][B,D] | [A,^C]2 z2 G,2 G,2 | x8 | z[K:bass] E, F,6 | %17
 [DB]2 z2 z D[B,E][B,D] | [A,^C]2 z2 G,2 G,2 | x8 |[M:3/4] z2 D4 |[M:1/4] x2 | %22
[M:4/4] [^Ge]2 z2 z B_B=B | z2 [Ec]4 z2 | x8 | x8 |] %26
V:4
 x4[K:bass] x4 | z4 B,,4 | x8 | x8 | x4[K:bass] x4 | z4 B,,4 | x8 | x8 | z4 G,,2 z2 | x8 | x8 | %11
[M:3/4] [G,B,]A, B,A, G,2 |[M:1/4] x2 |[M:4/4] z4 G,,2 z2 | x8 | x8 | %16
 [D,D]3- [D,E,D-] D-[C,D-][B,,D-][A,,D] | z4 G,,2 z2 | x8 | x8 |[M:3/4] [G,B,]A, B,A, G,2 | %21
[M:1/4] x2 |[M:4/4] z4 E,2 [E,F,]2 | [A,,A,]2 [A,,A,]2 C,2 z E | x8 | x8 |] %26
V:5
 x8 | x8 | x8 | x8 | x8 | x8 | x8 | x8 | z4 G,2 z2 | x8 | x8 |[M:3/4] z C z C B,2 |[M:1/4] x2 | %13
[M:4/4] z4 G,2 z2 | x8 | x8 | x[K:bass] x7 | z4 G,2 z2 | x8 | x8 |[M:3/4] z C z C B,2 |[M:1/4] x2 | %22
[M:4/4] z4 B,2 z2 | z4 A,2 z2 | x8 | x8 |] %26

